X: 20370
T: John Clifford's
R: polka
M: 2/4
K: Dmajor
A|:d>c df|B2 B2|c>d ec|A2 A2|
B/c/d ef|g2- g2|1 f/4g/4f/e fg|a2 a2:|2 fe af|d2 d2||
|:e>f e/d/c/B/|Af f2|Be ec/B/|Ad d2|
e>f e/d/c/B/|Af f2|Bc eB/c/|1 d2 d2:|2 d2 d||

